X:587
T: Bupa baigui laishaolou
N: C2008
O: China,Fujian Wuping
S: II, 587]
R: Shange]
M: 2/4
L: 1/16
K: G
d2B2A2AB | d2ega4 |
gedegae2 | e2a2a2a2 | a2e2a2ed | e6dB |
d2A2ABd2 | e2e2a2ge | gag2g2ed | e2e4a2 |
g2ged2d2- | d6dB |
d2e2d2d2 | a8 |
gedeg2e2 | a2gag2g2 | a2g2g2ed | e6dB |
d2d2d2A2 | d2e2d2ge | a2a2g2ed | e2e4a2 |
g2ged2d2- | d4d4

@@@ Tune index: 7142
